X: 2
T:A miña rosiña
M:3/4
L:1/8
Q:270
C:Trad
R:Foliada
B:Leccións de Gaita. OTERO COVELO
K:C
G2 |: A2G2F2 | E2 E2 G2 | B2A3G | F4 B2 |
B2 c2 B2 | A2G2 B2 | A2 G3F | E4 G2| A2 G3F | E4 G2|
B2A3G | F4 B2| B2 c2 B2 | A2 G2 B2 | A2 G3 F | E6- |1
E4 G2 :|2 E6 | B3AG2 | G2G2B2 | A4G2- | G6 | G3FE2 |
E2G2B2| A3GF2- | F6 | B3AG2 | G2G2B2 | A4G2- | G6 |:
G3FE2 | E2G2B2 | A3GF2 | B2 c4 | B3AG2 | B2A4 |
G3FE2- |1 E6 :|2 E4 ||

